X: 43231
T: Within A Mile Of Dublin
R: reel
M: 4/4
K: Dmixolydian
dB|:AD (3DDD (F{G}F{E}F)G|AD (3DDD c2 BG|ADDE FEFG|AdcA G2 FG:|
Ad ((3d^cd) AGFG|Ad ((3d^cd) fdec|Ad ((3d^cd) AGFG|AB{cd}cA ((3GAG) FG|
Ad ((3d^cd) AGFG|Adde f{a}f{e{}}fg|af (3gfe fde^c|dcAF G2 dB||

